.local/share/icons/Gruvbox-Plus-Dark/panel/22/popcorntime-tray.svg

<svg xmlns="http://www.w3.org/2000/svg" width="22" height="22" version="1.1">
 <defs>
  <style id="current-color-scheme" type="text/css">
   .ColorScheme-Text { color:#ebdbb2; } .ColorScheme-Highlight { color:#458588; }
  </style>
 </defs>
 <path style="fill:currentColor;opacity:0.3" class="ColorScheme-Text" d="M 3.857422,3.0000002 C 3.382562,3.0000002 3,3.3825621 3,3.8574221 L 3,11 19,11 19,3.8574221 c 0,-0.47484 -0.383422,-0.8574219 -0.857422,-0.8574219 l -14.285156,0 z m 3.142578,2 a 1,1 0 0 1 1,1 1,1 0 0 1 -1,1 1,1 0 0 1 -1,-1 1,1 0 0 1 1,-1 z m 8,0 a 1,1 0 0 1 1,1 1,1 0 0 1 -1,1 1,1 0 0 1 -1,-1 1,1 0 0 1 1,-1 z m -6,3 c 2.0537,0.31733 4,0 4,0 C 13,9.1046002 12.1046,10 11,10 9.8954,10 9,9.1046002 9,8.0000002 Z"/>
 <path style="fill:currentColor" class="ColorScheme-Text" d="m 3,11 0,7.142578 C 3,18.617578 3.382572,19 3.857422,19 l 14.285156,0 C 18.617578,19 19,18.617578 19,18.142578 L 19,11 3,11 Z m 3.902344,1 0.195312,0 C 7.597364,12 8,12.357028 8,12.800781 l 0,4.398438 C 8,17.642973 7.597364,18 7.097656,18 L 6.902344,18 C 6.402635,18 6,17.642973 6,17.199219 L 6,12.800781 C 6,12.357028 6.402635,12 6.902344,12 Z m 4,0 0.195312,0 C 11.597364,12 12,12.357028 12,12.800781 l 0,4.398438 C 12,17.642973 11.597364,18 11.097656,18 l -0.195312,0 C 10.402635,18 10,17.642973 10,17.199219 l 0,-4.398438 C 10,12.357028 10.402635,12 10.902344,12 Z m 4,0 0.195312,0 C 15.597364,12 16,12.357028 16,12.800781 l 0,4.398438 C 16,17.642973 15.597364,18 15.097656,18 l -0.195312,0 C 14.402636,18 14,17.642973 14,17.199219 l 0,-4.398438 C 14,12.357028 14.402636,12 14.902344,12 Z"/>
</svg>

<svg width="22" height="22" version="1.1" xmlns="http://www.w3.org/2000/svg">
  <defs>
    <style id="current-color-scheme" type="text/css">.ColorScheme-Text { color:#ebdbb2; } .ColorScheme-Highlight { color:#458588; } .ColorScheme-NeutralText { color:#fe8019; } .ColorScheme-PositiveText { color:#689d6a; } .ColorScheme-NegativeText { color:#fb4934; }</style>
  </defs>
  <path class="ColorScheme-Text" d="m3.857 3c-0.4749 0-0.8574 0.3826-0.8574 0.8574v7.143h16v-7.143c0-0.4748-0.3834-0.8574-0.8574-0.8574h-14.29zm3.143 2a1 1 0 0 1 1 1 1 1 0 0 1-1 1 1 1 0 0 1-1-1 1 1 0 0 1 1-1zm8 0a1 1 0 0 1 1 1 1 1 0 0 1-1 1 1 1 0 0 1-1-1 1 1 0 0 1 1-1zm-6 3c2.054 0.3173 4 0 4 0 0 1.105-0.8954 2-2 2s-2-0.8954-2-2z" fill="currentColor" opacity=".3"/>
  <path class="ColorScheme-Text" d="m3 11v7.143c0 0.475 0.3826 0.8574 0.8574 0.8574h14.29c0.475 0 0.8574-0.3824 0.8574-0.8574v-7.143h-16zm3.902 1h0.1953c0.4997 0 0.9023 0.357 0.9023 0.8008v4.398c0 0.4438-0.4026 0.8008-0.9023 0.8008h-0.1953c-0.4997 0-0.9023-0.357-0.9023-0.8008v-4.398c0-0.4438 0.4026-0.8008 0.9023-0.8008zm4 0h0.1953c0.4997 0 0.9023 0.357 0.9023 0.8008v4.398c0 0.4438-0.4026 0.8008-0.9023 0.8008h-0.1953c-0.4997 0-0.9023-0.357-0.9023-0.8008v-4.398c0-0.4438 0.4026-0.8008 0.9023-0.8008zm4 0h0.1953c0.4997 0 0.9023 0.357 0.9023 0.8008v4.398c0 0.4438-0.4026 0.8008-0.9023 0.8008h-0.1953c-0.4997 0-0.9023-0.357-0.9023-0.8008v-4.398c0-0.4438 0.4026-0.8008 0.9023-0.8008z" fill="currentColor"/>
</svg>
